X:1
T:[ID 2-36]
T:[ID 2-36]
T:Bezeichnung standardisiert: Menuett Men\"uet 5.
T:Urheber unbekannt Erstbeleg: 1767 (Datum in der schriftlichen Quelle) Datum in der hier transkribierten schriftlichen Quelle: 1792
C:Urheber unbekannt
C:Erstbeleg: 1767 (Datum in der schriftlichen Quelle)
C:Datum in der hier transkribierten schriftlichen Quelle: 1792
L:1/8
M:3/4
K:C
V:1 treble 
V:1
 ge c2 (3fga | ge c2 a2 | g2 fedc | B2 (3ABA G2 | cE F2 F2 | EG c4 | dE F2 F2 | EA c4 | dfedcB | %9
 c6 :: e2 ce g2 | d2 Bd g2 | c2 B2 AG | ^FGAF D2 | cA D2 D2 | GB c4 | cA D2 D2 | GB d4 | B2 AG^FA | %19
 G6 | c4 _B2 | A2 GA F2 | d4 c2 | BcdB G2 | cE F2 F2 | EG c4 | dE F2 F2 | EG c4 | dfefgB | c6 :| %30

